svgs/regular/baht-sign.svg

<svg xmlns="http://www.w3.org/2000/svg" viewBox="0 0 320 512"><!--! Font Awesome Pro 6.6.0 by @fontawesome - https://fontawesome.com License - https://fontawesome.com/license (Commercial License) Copyright 2024 Fonticons, Inc. --><path d="M136 0c-13.3 0-24 10.7-24 24l0 40L37.6 64C16.8 64 0 80.8 0 101.6L0 232l0 41.7L0 280 0 406.3c0 23 18.7 41.7 41.7 41.7l70.3 0 0 40c0 13.3 10.7 24 24 24s24-10.7 24-24l0-40 52 0c59.6 0 108-48.4 108-108c0-42.1-24.1-78.5-59.2-96.4C277.7 224.6 288 199.5 288 172c0-59.6-48.4-108-108-108l-20 0 0-40c0-13.3-10.7-24-24-24zM112 112l0 120-64 0 0-120 64 0zm48 120l0-120 20 0c33.1 0 60 26.9 60 60s-26.9 60-60 60l-20 0zm-48 48l0 120-64 0 0-120 64 0zm48 120l0-120 20 0 32 0c33.1 0 60 26.9 60 60s-26.9 60-60 60l-52 0z"/></svg>

<svg xmlns="http://www.w3.org/2000/svg" viewBox="0 0 320 512"><!--! Font Awesome Pro 6.4.0 by @fontawesome - https://fontawesome.com License - https://fontawesome.com/license (Commercial License) Copyright 2023 Fonticons, Inc. --><path d="M136 0c-13.3 0-24 10.7-24 24V64H37.6C16.8 64 0 80.8 0 101.6V232v41.7V280 406.3c0 23 18.7 41.7 41.7 41.7H112v40c0 13.3 10.7 24 24 24s24-10.7 24-24V448h52c59.6 0 108-48.4 108-108c0-42.1-24.1-78.5-59.2-96.4C277.7 224.6 288 199.5 288 172c0-59.6-48.4-108-108-108H160V24c0-13.3-10.7-24-24-24zM112 112V232H48V112h64zm48 120V112h20c33.1 0 60 26.9 60 60s-26.9 60-60 60H160zm-48 48V400H48V280h64zm48 120V280h20 32c33.1 0 60 26.9 60 60s-26.9 60-60 60H160z"/></svg>
